source/images/svg/icon-calendar.svg

<svg width="15" height="15" viewBox="0 0 15 15" fill="none" xmlns="http://www.w3.org/2000/svg"><path d="M14 2h-2V0h-1v2H4V0H3v2H1c-.6 0-1 .4-1 1v11c0 .5.4 1 1 1h13c.5 0 1-.5 1-1V3c0-.6-.5-1-1-1zm0 12H1V7h13v7zM1 6V3h2v2h1V3h7v2h1V3h2v3H1z" fill="#000"/></svg>

<svg width="15" height="15" viewBox="0 0 15 15" fill="none" xmlns="http://www.w3.org/2000/svg">
<path d="M14 2H12V0H11V2H4V0H3V2H1C0.4 2 0 2.4 0 3V6V7V14C0 14.5 0.4 15 1 15H14C14.5 15 15 14.5 15 14V7V6V3C15 2.4 14.5 2 14 2ZM14 14H1V7H14V14ZM1 6V3H3V5H4V3H11V5H12V3H14V6H1Z" fill="black"/>
</svg>
